proprietary/assets/icons/op-kantoor/document-met-vinkjes-en-lijnen.svg

<svg enable-background="new 0 0 64 64" height="64" viewBox="0 0 64 64" width="64" xmlns="http://www.w3.org/2000/svg"><path d="m0 0h64v64h-64z" fill="none"/><path d="m51.4 22.4-14.8-14.8c-.4-.4-.9-.6-1.4-.6h-21.2c-1.1 0-2 .9-2 2v46c0 1.1.9 2 2 2h36c1.1 0 2-.9 2-2v-31.2c0-.5-.2-1-.6-1.4zm-1.3 2-3.1.9v26.7h-30v-40h16.7l.9-3.1c.1-.4.4-.3.4-.3v14.4c0 .6.4 1 1 1h14.4s.1.3-.3.4z"/><path d="m28.6 17.3-4.6 5.1-2.8-2.4c-.3-.3-.7-.3-1 0-.3.2-.4.7-.2 1l3.3 5.6c.1.2.4.4.7.4.3 0 .5-.1.7-.4l5.1-8.4c.2-.3.1-.8-.2-1-.2-.2-.7-.2-1 .1z"/><path d="m28.6 28.3-4.6 5.1-2.8-2.4c-.3-.3-.7-.3-1 0-.3.2-.4.7-.2 1l3.3 5.6c.1.2.4.4.7.4.3 0 .5-.1.7-.4l5.1-8.4c.2-.3.1-.8-.2-1-.2-.2-.7-.2-1 .1z"/><path d="m28.6 39.3-4.6 5.1-2.8-2.4c-.3-.3-.7-.3-1 0-.3.2-.4.7-.2 1l3.3 5.6c.1.2.4.4.7.4.3 0 .5-.1.7-.4l5.1-8.4c.2-.3.1-.8-.2-1-.2-.2-.7-.2-1 .1z"/><path d="m33 31h12v3h-12z"/><path d="m33 42h12v3h-12z"/></svg>

<?xml version="1.0" encoding="utf-8"?>
<!-- Generator: Adobe Illustrator 22.1.0, SVG Export Plug-In . SVG Version: 6.00 Build 0)  -->
<!DOCTYPE svg PUBLIC "-//W3C//DTD SVG 1.1//EN" "http://www.w3.org/Graphics/SVG/1.1/DTD/svg11.dtd">
<svg version="1.1" xmlns="http://www.w3.org/2000/svg" xmlns:xlink="http://www.w3.org/1999/xlink" x="0px" y="0px" width="64px"
	 height="64px" viewBox="0 0 64 64" style="enable-background:new 0 0 64 64;" xml:space="preserve">
<style type="text/css">
	.st0{fill:none;}
</style>
<g id="Box">
	<rect class="st0" width="64" height="64"/>
</g>
<g id="Icon">
	<g>
		<path d="M51.4,22.4L36.6,7.6C36.2,7.2,35.7,7,35.2,7H14c-1.1,0-2,0.9-2,2v46c0,1.1,0.9,2,2,2h36c1.1,0,2-0.9,2-2V23.8
			C52,23.3,51.8,22.8,51.4,22.4z M50.1,24.4L47,25.3V52H17V12h16.7l0.9-3.1C34.7,8.5,35,8.6,35,8.6V23c0,0.6,0.4,1,1,1h14.4
			C50.4,24,50.5,24.3,50.1,24.4z"/>
		<path d="M28.6,17.3l-4.6,5.1l-2.8-2.4c-0.3-0.3-0.7-0.3-1,0c-0.3,0.2-0.4,0.7-0.2,1l3.3,5.6c0.1,0.2,0.4,0.4,0.7,0.4c0,0,0,0,0,0
			c0.3,0,0.5-0.1,0.7-0.4l5.1-8.4c0.2-0.3,0.1-0.8-0.2-1C29.4,17,28.9,17,28.6,17.3z"/>
		<path d="M28.6,28.3l-4.6,5.1l-2.8-2.4c-0.3-0.3-0.7-0.3-1,0c-0.3,0.2-0.4,0.7-0.2,1l3.3,5.6c0.1,0.2,0.4,0.4,0.7,0.4c0,0,0,0,0,0
			c0.3,0,0.5-0.1,0.7-0.4l5.1-8.4c0.2-0.3,0.1-0.8-0.2-1C29.4,28,28.9,28,28.6,28.3z"/>
		<path d="M28.6,39.3l-4.6,5.1l-2.8-2.4c-0.3-0.3-0.7-0.3-1,0c-0.3,0.2-0.4,0.7-0.2,1l3.3,5.6c0.1,0.2,0.4,0.4,0.7,0.4c0,0,0,0,0,0
			c0.3,0,0.5-0.1,0.7-0.4l5.1-8.4c0.2-0.3,0.1-0.8-0.2-1C29.4,39,28.9,39,28.6,39.3z"/>
		<rect x="33" y="31" width="12" height="3"/>
		<rect x="33" y="42" width="12" height="3"/>
	</g>
</g>
</svg>
